icons/310.svg

<?xml version="1.0" encoding="utf-8"?>
<svg width="16" height="16" fill="currentColor" class="qi-310" viewBox="0 -0.951 16 16.951" xmlns="http://www.w3.org/2000/svg">
  <path d="M3.685 8.455a3.172 3.172 0 0 0 1.243-.253 4.61 4.61 0 0 0 6.144 0 3.185 3.185 0 1 0 1.243-6.116 3.146 3.146 0 0 0-.396.04 4.675 4.675 0 0 0-7.838 0 3.146 3.146 0 0 0-.397-.04 3.184 3.184 0 1 0 0 6.369zm0-5.37a1.236 1.236 0 0 1 .17.02l.101.013a1 1 0 0 0 .962-.444 3.675 3.675 0 0 1 6.164 0 1 1 0 0 0 .962.444l.102-.014a1.236 1.236 0 0 1 .17-.018 2.184 2.184 0 1 1-.853 4.196 1 1 0 0 0-1.05.167 3.61 3.61 0 0 1-4.827 0 1 1 0 0 0-1.049-.167 2.185 2.185 0 1 1-.852-4.196zM7 13.713a1 1 0 0 0 2 0 6.604 6.604 0 0 0-1-2 6.604 6.604 0 0 0-1 2zm-2.527-2.02a1 1 0 0 0 2 0 6.604 6.604 0 0 0-1-2 6.604 6.604 0 0 0-1 2zm5.011 0a1 1 0 0 0 2 0 6.604 6.604 0 0 0-1-2 6.604 6.604 0 0 0-1 2zm-6.732-.833a5.192 5.192 0 0 0-.786-1.573 5.192 5.192 0 0 0-.786 1.573.786.786 0 0 0 1.572 0zm-.347 2.746a.786.786 0 0 0 1.572 0 5.192 5.192 0 0 0-.786-1.573 5.192 5.192 0 0 0-.786 1.573zm10.835-2.738a.786.786 0 0 0 1.573 0 5.194 5.194 0 0 0-.786-1.573 5.194 5.194 0 0 0-.787 1.573zm-1.209 2.738a.786.786 0 0 0 1.573 0 5.192 5.192 0 0 0-.786-1.573 5.192 5.192 0 0 0-.787 1.573z" style="fill-rule: evenodd; fill: rgb(15, 116, 255);"/>
  <rect x="0.181" y="-0.638" width="15.344" height="7.163" style="fill: rgb(255, 255, 255);"/>
  <path d="M 15.389 6.81 C 15.389 8.25 14.221 9.415 12.783 9.415 L 3.402 9.415 C 0.995 9.415 -0.509 6.81 0.695 4.725 C 1.253 3.757 2.285 3.162 3.402 3.162 C 3.413 3.162 3.425 3.164 3.438 3.164 C 3.694 1.107 5.445 -0.487 7.57 -0.487 C 9.355 -0.487 10.871 0.634 11.466 2.208 C 11.637 2.156 11.813 2.118 12.001 2.118 C 13.008 2.118 13.824 2.935 13.824 3.944 C 13.824 4.101 13.8 4.25 13.76 4.397 C 14.744 4.794 15.388 5.749 15.389 6.81 Z" fill="#7896C7" style=""/>
</svg>

<?xml version="1.0" encoding="utf-8"?>
<svg width="16" height="16" fill="currentColor" class="qi-310" viewBox="0 -0.951 16 16.077" xmlns="http://www.w3.org/2000/svg">
  <path d="M 3.685 8.455 C 4.112 8.455 4.535 8.369 4.928 8.202 C 6.678 9.766 9.322 9.766 11.072 8.202 C 13.328 9.161 11.293 8.777 10.996 6.343 C 10.801 4.744 12.871 3.777 11.26 3.779 C 11.128 3.784 10.846 3.681 10.715 3.703 C 8.871 0.868 5.925 -0.709 4.081 2.126 C 3.95 2.104 6.27 4.627 6.137 4.622 C 3.686 4.622 -0.3 4.74 0.926 6.863 C 1.495 7.848 2.546 8.455 3.684 8.455 L 3.685 8.455 Z M 3.685 3.085 C 3.742 3.088 3.799 3.094 3.855 3.105 L 3.956 3.118 C 4.335 3.166 4.709 2.994 4.918 2.674 C 6.367 0.443 9.633 0.443 11.082 2.674 C 11.291 2.994 11.665 3.166 12.044 3.118 L 12.146 3.104 C 12.202 3.094 12.259 3.088 12.316 3.086 C 11.721 3.944 12.769 5.765 14.202 6.365 C 15.217 6.79 12.477 7.71 11.463 7.282 C 11.11 7.132 10.702 7.196 10.413 7.449 C 9.041 8.683 6.958 8.683 5.586 7.449 C 5.297 7.197 4.89 7.132 4.537 7.282 C 2.989 7.94 1.31 6.675 1.514 5.005 C 1.648 3.909 3.481 7.059 3.685 3.086 L 3.685 3.085 Z M 7 13.713 C 7 14.483 7.833 14.964 8.5 14.579 C 8.809 14.4 9 14.07 9 13.713 C 8.783 12.994 8.445 12.318 8 11.713 C 7.555 12.318 7.217 12.994 7 13.713 Z M 4.473 11.693 C 4.473 12.463 5.306 12.944 5.973 12.559 C 6.282 12.38 6.473 12.05 6.473 11.693 C 6.256 10.974 5.918 10.298 5.473 9.693 C 5.028 10.298 4.69 10.974 4.473 11.693 Z M 9.484 11.693 C 9.484 12.463 10.317 12.944 10.984 12.559 C 11.293 12.38 11.484 12.05 11.484 11.693 C 11.267 10.974 10.929 10.298 10.484 9.693 C 10.039 10.298 9.701 10.974 9.484 11.693 Z M 2.752 10.86 C 2.581 10.295 2.316 9.763 1.966 9.287 C 1.616 9.763 1.351 10.295 1.18 10.86 C 1.18 11.465 1.835 11.843 2.359 11.541 C 2.602 11.4 2.752 11.141 2.752 10.86 Z M 2.405 13.606 C 2.405 14.211 3.06 14.589 3.584 14.287 C 3.827 14.146 3.977 13.887 3.977 13.606 C 3.806 13.041 3.541 12.509 3.191 12.033 C 2.841 12.509 2.576 13.041 2.405 13.606 Z M 13.24 10.868 C 13.24 11.473 13.895 11.852 14.42 11.549 C 14.663 11.409 14.813 11.149 14.813 10.868 C 14.642 10.303 14.376 9.771 14.027 9.295 C 13.677 9.771 13.411 10.303 13.24 10.868 Z M 12.031 13.606 C 12.031 14.211 12.686 14.59 13.211 14.287 C 13.454 14.147 13.604 13.887 13.604 13.606 C 13.433 13.041 13.168 12.509 12.818 12.033 C 12.468 12.509 12.202 13.041 12.031 13.606 Z" style="fill-rule: evenodd; fill: rgb(15, 116, 255);"/>
  <path d="M 15.389 6.81 C 15.389 8.25 14.221 9.415 12.783 9.415 L 3.402 9.415 C 0.995 9.415 -0.509 6.81 0.695 4.725 C 1.253 3.757 2.285 3.162 3.402 3.162 C 3.413 3.162 3.425 3.164 3.438 3.164 C 3.694 1.107 5.445 -0.487 7.57 -0.487 C 9.355 -0.487 10.871 0.634 11.466 2.208 C 11.637 2.156 11.813 2.118 12.001 2.118 C 13.008 2.118 13.824 2.935 13.824 3.944 C 13.824 4.101 13.8 4.25 13.76 4.397 C 14.744 4.794 15.388 5.749 15.389 6.81 Z" fill="#7896C7" style=""/>
</svg>
